BPShop/img/footer/mir.svg

<svg width="47" height="12" viewBox="0 0 47 12" fill="none" xmlns="http://www.w3.org/2000/svg">
<path fill-rule="evenodd" clip-rule="evenodd" d="M33.3845 5.42163V12.0002H37.3746V8.1018H41.8967C43.8 8.08886 45.4167 6.97526 46.0264 5.42163H33.3845Z" fill="#7F7F7F"/>
<path fill-rule="evenodd" clip-rule="evenodd" d="M32.8523 0C33.0847 2.68897 35.862 4.81212 39.254 4.81212C39.2651 4.81212 46.1919 4.81212 46.1919 4.81212C46.2431 4.56551 46.2699 4.31098 46.2699 4.05071C46.2699 1.82324 44.3079 0.0164784 41.8808 0.000112076L32.8523 0Z" fill="#7F7F7F"/>
<path fill-rule="evenodd" clip-rule="evenodd" d="M26.9437 4.74813L26.9468 4.742L26.9472 4.74209C26.9881 4.67486 27.0665 4.62938 27.1565 4.62938C27.2865 4.62938 27.3923 4.72427 27.3958 4.84256L27.3959 4.84258V11.9389H31.386V0H27.3959C26.8899 0.0154263 26.3183 0.355524 26.1057 0.773001L22.9304 7.01029C22.9225 7.03579 22.9103 7.05959 22.8944 7.08096L22.8933 7.08304L22.8929 7.08292C22.8449 7.14626 22.7649 7.18772 22.6743 7.18772C22.5274 7.18772 22.4083 7.07864 22.4083 6.94407V0H18.4182V11.9389H22.4083V11.9376C22.9088 11.9136 23.467 11.5774 23.6765 11.1659L26.9355 4.76422C26.938 4.75874 26.9407 4.75337 26.9437 4.74813Z" fill="#7F7F7F"/>
<path fill-rule="evenodd" clip-rule="evenodd" d="M12.047 4.95221L9.71495 11.9389H6.84456L4.51111 4.94797C4.48861 4.83602 4.38151 4.75121 4.25278 4.75121C4.1077 4.75121 3.9901 4.85893 3.9901 4.99181C3.9901 4.99283 3.9901 4.99384 3.99012 4.99486L3.9901 11.9389H0V0H3.42483H4.44482C5.17901 0 5.94838 0.521891 6.16293 1.16467L8.10481 6.98249C8.20143 7.27195 8.35818 7.27164 8.45469 6.98249L10.3966 1.16467C10.6113 0.521441 11.3804 0 12.1147 0L13.1344 0H16.5589V11.9389H12.5688V4.99486C12.5688 4.99384 12.5688 4.99283 12.5688 4.99181C12.5688 4.85893 12.4512 4.75121 12.3061 4.75121C12.1758 4.75121 12.0676 4.83817 12.047 4.95221Z" fill="#7F7F7F"/>
</svg>

<svg width="47" height="12" fill="none" xmlns="http://www.w3.org/2000/svg"><path fill-rule="evenodd" clip-rule="evenodd" d="M33.385 5.422V12h3.99V8.102h4.522c1.903-.013 3.52-1.127 4.13-2.68H33.384zM32.852 0c.233 2.689 3.01 4.812 6.402 4.812h6.938a3.75 3.75 0 00.078-.761c0-2.228-1.962-4.035-4.39-4.05L32.853 0zm-5.908 4.748l.003-.006a.244.244 0 01.21-.113c.13 0 .235.095.239.214v7.096h3.99V0h-3.99c-.506.015-1.078.356-1.29.773L22.93 7.01a.235.235 0 01-.036.071v.002h-.001a.273.273 0 01-.219.105c-.147 0-.266-.11-.266-.244V0h-3.99v11.939h3.99v-.001c.5-.024 1.059-.36 1.268-.772l3.26-6.402a.196.196 0 01.008-.016zm-14.897.204L9.715 11.94h-2.87L4.51 4.948a.258.258 0 00-.258-.197c-.145 0-.263.108-.263.24v6.949H0V0h4.445c.734 0 1.503.522 1.718 1.165l1.942 5.817c.096.29.253.29.35 0l1.942-5.817C10.61.52 11.38 0 12.115 0h4.444v11.939h-3.99V4.992c0-.133-.118-.24-.263-.24-.13 0-.238.086-.259.2z" fill="#7F7F7F"/></svg>
